public/images/sun.svg

<svg height="110" viewBox="0 0 110 110" width="110" xmlns="http://www.w3.org/2000/svg"><g fill="#fff"><path d="m52.4189 17.2605c0 1.2041.9761 2.1801 2.1801 2.1801s2.1801-.976 2.1801-2.1801v-13.08042c0-1.20403-.9761-2.18008-2.1801-2.18008s-2.1801.97605-2.1801 2.18008z"/><path d="m80.3044 29.9731c-.8514-.8514-.8514-2.2318 0-3.0831l9.2492-9.2493c.8514-.8514 2.2318-.8514 3.0831 0 .8514.8514.8514 2.2317 0 3.0831l-9.2493 9.2493c-.8513.8513-2.2317.8513-3.083 0z"/><path d="m29.5777 30.4864c-.8514.8513-2.2317.8513-3.0831 0l-9.2493-9.2493c-.8513-.8514-.8513-2.2318 0-3.0831.8514-.8514 2.2318-.8514 3.0831 0l9.2493 9.2493c.8514.8513.8514 2.2317 0 3.0831z"/><path clip-rule="evenodd" d="m55.0675 28.8841c14.4483 0 26.161 11.7126 26.161 26.1609s-11.7127 26.1609-26.161 26.1609c-14.4482 0-26.1609-11.7126-26.1609-26.1609s11.7127-26.1609 26.1609-26.1609zm0 4.3602c12.0403 0 21.8008 9.7605 21.8008 21.8007 0 12.0403-9.7605 21.8008-21.8008 21.8008-12.0402 0-21.8007-9.7605-21.8007-21.8008 0-12.0402 9.7605-21.8007 21.8007-21.8007z" fill-rule="evenodd"/><path d="m4.18008 53.2096c-1.20403 0-2.18008.9761-2.18008 2.1801s.97605 2.1801 2.18008 2.1801h13.08042c1.2041 0 2.1801-.9761 2.1801-2.1801s-.976-2.1801-2.1801-2.1801z"/><path d="m88.7629 92.3593c.8514.8514 2.2318.8514 3.0831 0 .8514-.8514.8514-2.2317 0-3.0831l-9.2493-9.2493c-.8513-.8513-2.2317-.8513-3.0831 0-.8513.8514-.8513 2.2318 0 3.0831z"/><path d="m108 55.2033c0 1.204-.976 2.1801-2.18 2.1801h-13.0805c-1.2041 0-2.1801-.9761-2.1801-2.1801s.976-2.1801 2.1801-2.1801h13.0805c1.204 0 2.18.9761 2.18 2.1801z"/><path d="m17.0477 92.0437c-.8514-.8514-.8514-2.2317 0-3.0831l9.2492-9.2493c.8514-.8514 2.2318-.8514 3.0831 0 .8514.8514.8514 2.2317 0 3.0831l-9.2493 9.2493c-.8513.8514-2.2317.8514-3.083 0z"/><path d="m52.4189 105.82c0 1.204.9761 2.18 2.1801 2.18s2.1801-.976 2.1801-2.18v-13.0805c0-1.2041-.9761-2.1801-2.1801-2.1801s-2.1801.976-2.1801 2.1801z"/></g><path d="m52.4189 17.2605c0 1.2041.9761 2.1801 2.1801 2.1801s2.1801-.976 2.1801-2.1801v-13.08042c0-1.20403-.9761-2.18008-2.1801-2.18008s-2.1801.97605-2.1801 2.18008z" stroke="#fff" stroke-linecap="round" stroke-linejoin="round" stroke-width="3.53333"/><path d="m80.3044 29.9731c-.8514-.8514-.8514-2.2318 0-3.0831l9.2492-9.2493c.8514-.8514 2.2318-.8514 3.0831 0 .8514.8514.8514 2.2317 0 3.0831l-9.2493 9.2493c-.8513.8513-2.2317.8513-3.083 0z" stroke="#fff" stroke-linecap="round" stroke-linejoin="round" stroke-width="3.53333"/><path d="m29.5777 30.4864c-.8514.8513-2.2317.8513-3.0831 0l-9.2493-9.2493c-.8513-.8514-.8513-2.2318 0-3.0831.8514-.8514 2.2318-.8514 3.0831 0l9.2493 9.2493c.8514.8513.8514 2.2317 0 3.0831z" stroke="#fff" stroke-linecap="round" stroke-linejoin="round" stroke-width="3.53333"/><path d="m55.0675 28.8841c14.4483 0 26.161 11.7126 26.161 26.1609s-11.7127 26.1609-26.161 26.1609c-14.4482 0-26.1609-11.7126-26.1609-26.1609s11.7127-26.1609 26.1609-26.1609zm0 4.3602c12.0403 0 21.8008 9.7605 21.8008 21.8007 0 12.0403-9.7605 21.8008-21.8008 21.8008-12.0402 0-21.8007-9.7605-21.8007-21.8008 0-12.0402 9.7605-21.8007 21.8007-21.8007z" style="fill-rule:evenodd;clip-rule:evenodd;stroke:#fff;stroke-width:3.53333;stroke-linecap:round;stroke-linejoin:round"/><path d="m4.18008 53.2096c-1.20403 0-2.18008.9761-2.18008 2.1801s.97605 2.1801 2.18008 2.1801h13.08042c1.2041 0 2.1801-.9761 2.1801-2.1801s-.976-2.1801-2.1801-2.1801z" stroke="#fff" stroke-linecap="round" stroke-linejoin="round" stroke-width="3.53333"/><path d="m88.7629 92.3593c.8514.8514 2.2318.8514 3.0831 0 .8514-.8514.8514-2.2317 0-3.0831l-9.2493-9.2493c-.8513-.8513-2.2317-.8513-3.0831 0-.8513.8514-.8513 2.2318 0 3.0831z" stroke="#fff" stroke-linecap="round" stroke-linejoin="round" stroke-width="3.53333"/><path d="m108 55.2033c0 1.204-.976 2.1801-2.18 2.1801h-13.0805c-1.2041 0-2.1801-.9761-2.1801-2.1801s.976-2.1801 2.1801-2.1801h13.0805c1.204 0 2.18.9761 2.18 2.1801z" stroke="#fff" stroke-linecap="round" stroke-linejoin="round" stroke-width="3.53333"/><path d="m17.0477 92.0437c-.8514-.8514-.8514-2.2317 0-3.0831l9.2492-9.2493c.8514-.8514 2.2318-.8514 3.0831 0 .8514.8514.8514 2.2317 0 3.0831l-9.2493 9.2493c-.8513.8514-2.2317.8514-3.083 0z" stroke="#fff" stroke-linecap="round" stroke-linejoin="round" stroke-width="3.53333"/><path d="m52.4189 105.82c0 1.204.9761 2.18 2.1801 2.18s2.1801-.976 2.1801-2.18v-13.0805c0-1.2041-.9761-2.1801-2.1801-2.1801s-2.1801.976-2.1801 2.1801z" stroke="#fff" stroke-linecap="round" stroke-linejoin="round" stroke-width="3.53333"/></svg>

<svg width="110" height="110" viewBox="0 0 110 110" xmlns="http://www.w3.org/2000/svg">
<path d="M52.4189 17.2605C52.4189 18.4646 53.395 19.4406 54.599 19.4406C55.803 19.4406 56.7791 18.4646 56.7791 17.2605V4.18008C56.7791 2.97605 55.803 2 54.599 2C53.395 2 52.4189 2.97605 52.4189 4.18008V17.2605Z" fill="#fff"/>
<path d="M80.3044 29.9731C79.453 29.1217 79.453 27.7413 80.3044 26.89L89.5536 17.6407C90.405 16.7893 91.7854 16.7893 92.6367 17.6407C93.4881 18.4921 93.4881 19.8724 92.6367 20.7238L83.3874 29.9731C82.5361 30.8244 81.1557 30.8244 80.3044 29.9731Z" fill="#fff"/>
<path d="M29.5777 30.4864C28.7263 31.3377 27.346 31.3377 26.4946 30.4864L17.2453 21.2371C16.394 20.3857 16.394 19.0053 17.2453 18.154C18.0967 17.3026 19.4771 17.3026 20.3284 18.154L29.5777 27.4033C30.4291 28.2546 30.4291 29.635 29.5777 30.4864Z" fill="#fff"/>
<path fill-rule="evenodd" clip-rule="evenodd" d="M55.0675 28.8841C69.5158 28.8841 81.2285 40.5967 81.2285 55.045C81.2285 69.4933 69.5158 81.2059 55.0675 81.2059C40.6193 81.2059 28.9066 69.4933 28.9066 55.045C28.9066 40.5967 40.6193 28.8841 55.0675 28.8841ZM55.0675 33.2443C67.1078 33.2443 76.8683 43.0048 76.8683 55.045C76.8683 67.0853 67.1078 76.8458 55.0675 76.8458C43.0273 76.8458 33.2668 67.0853 33.2668 55.045C33.2668 43.0048 43.0273 33.2443 55.0675 33.2443Z" fill="#fff"/>
<path d="M4.18008 53.2096C2.97605 53.2096 2 54.1857 2 55.3897C2 56.5937 2.97605 57.5698 4.18008 57.5698H17.2605C18.4646 57.5698 19.4406 56.5937 19.4406 55.3897C19.4406 54.1857 18.4646 53.2096 17.2605 53.2096H4.18008Z" fill="#fff"/>
<path d="M88.7629 92.3593C89.6143 93.2107 90.9947 93.2107 91.846 92.3593C92.6974 91.5079 92.6974 90.1276 91.846 89.2762L82.5967 80.0269C81.7454 79.1756 80.365 79.1756 79.5136 80.0269C78.6623 80.8783 78.6623 82.2587 79.5136 83.11L88.7629 92.3593Z" fill="#fff"/>
<path d="M108 55.2033C108 56.4073 107.024 57.3834 105.82 57.3834H92.7395C91.5354 57.3834 90.5594 56.4073 90.5594 55.2033C90.5594 53.9993 91.5354 53.0232 92.7395 53.0232H105.82C107.024 53.0232 108 53.9993 108 55.2033Z" fill="#fff"/>
<path d="M17.0477 92.0437C16.1963 91.1923 16.1963 89.812 17.0477 88.9606L26.2969 79.7113C27.1483 78.8599 28.5287 78.8599 29.38 79.7113C30.2314 80.5627 30.2314 81.943 29.38 82.7944L20.1307 92.0437C19.2794 92.8951 17.899 92.8951 17.0477 92.0437Z" fill="#fff"/>
<path d="M52.4189 105.82C52.4189 107.024 53.395 108 54.599 108C55.803 108 56.7791 107.024 56.7791 105.82V92.7395C56.7791 91.5354 55.803 90.5594 54.599 90.5594C53.395 90.5594 52.4189 91.5354 52.4189 92.7395V105.82Z" fill="#fff"/>
<path d="M52.4189 17.2605C52.4189 18.4646 53.395 19.4406 54.599 19.4406C55.803 19.4406 56.7791 18.4646 56.7791 17.2605V4.18008C56.7791 2.97605 55.803 2 54.599 2C53.395 2 52.4189 2.97605 52.4189 4.18008V17.2605Z" stroke="#fff" stroke-width="3.53333" stroke-linecap="round" stroke-linejoin="round"/>
<path d="M80.3044 29.9731C79.453 29.1217 79.453 27.7413 80.3044 26.89L89.5536 17.6407C90.405 16.7893 91.7854 16.7893 92.6367 17.6407C93.4881 18.4921 93.4881 19.8724 92.6367 20.7238L83.3874 29.9731C82.5361 30.8244 81.1557 30.8244 80.3044 29.9731Z" stroke="#fff" stroke-width="3.53333" stroke-linecap="round" stroke-linejoin="round"/>
<path d="M29.5777 30.4864C28.7263 31.3377 27.346 31.3377 26.4946 30.4864L17.2453 21.2371C16.394 20.3857 16.394 19.0053 17.2453 18.154C18.0967 17.3026 19.4771 17.3026 20.3284 18.154L29.5777 27.4033C30.4291 28.2546 30.4291 29.635 29.5777 30.4864Z" stroke="#fff" stroke-width="3.53333" stroke-linecap="round" stroke-linejoin="round"/>
<path fill-rule="evenodd" clip-rule="evenodd" d="M55.0675 28.8841C69.5158 28.8841 81.2285 40.5967 81.2285 55.045C81.2285 69.4933 69.5158 81.2059 55.0675 81.2059C40.6193 81.2059 28.9066 69.4933 28.9066 55.045C28.9066 40.5967 40.6193 28.8841 55.0675 28.8841ZM55.0675 33.2443C67.1078 33.2443 76.8683 43.0048 76.8683 55.045C76.8683 67.0853 67.1078 76.8458 55.0675 76.8458C43.0273 76.8458 33.2668 67.0853 33.2668 55.045C33.2668 43.0048 43.0273 33.2443 55.0675 33.2443Z" stroke="#fff" stroke-width="3.53333" stroke-linecap="round" stroke-linejoin="round"/>
<path d="M4.18008 53.2096C2.97605 53.2096 2 54.1857 2 55.3897C2 56.5937 2.97605 57.5698 4.18008 57.5698H17.2605C18.4646 57.5698 19.4406 56.5937 19.4406 55.3897C19.4406 54.1857 18.4646 53.2096 17.2605 53.2096H4.18008Z" stroke="#fff" stroke-width="3.53333" stroke-linecap="round" stroke-linejoin="round"/>
<path d="M88.7629 92.3593C89.6143 93.2107 90.9947 93.2107 91.846 92.3593C92.6974 91.5079 92.6974 90.1276 91.846 89.2762L82.5967 80.0269C81.7454 79.1756 80.365 79.1756 79.5136 80.0269C78.6623 80.8783 78.6623 82.2587 79.5136 83.11L88.7629 92.3593Z" stroke="#fff" stroke-width="3.53333" stroke-linecap="round" stroke-linejoin="round"/>
<path d="M108 55.2033C108 56.4073 107.024 57.3834 105.82 57.3834H92.7395C91.5354 57.3834 90.5594 56.4073 90.5594 55.2033C90.5594 53.9993 91.5354 53.0232 92.7395 53.0232H105.82C107.024 53.0232 108 53.9993 108 55.2033Z" stroke="#fff" stroke-width="3.53333" stroke-linecap="round" stroke-linejoin="round"/>
<path d="M17.0477 92.0437C16.1963 91.1923 16.1963 89.812 17.0477 88.9606L26.2969 79.7113C27.1483 78.8599 28.5287 78.8599 29.38 79.7113C30.2314 80.5627 30.2314 81.943 29.38 82.7944L20.1307 92.0437C19.2794 92.8951 17.899 92.8951 17.0477 92.0437Z" stroke="#fff" stroke-width="3.53333" stroke-linecap="round" stroke-linejoin="round"/>
<path d="M52.4189 105.82C52.4189 107.024 53.395 108 54.599 108C55.803 108 56.7791 107.024 56.7791 105.82V92.7395C56.7791 91.5354 55.803 90.5594 54.599 90.5594C53.395 90.5594 52.4189 91.5354 52.4189 92.7395V105.82Z" stroke="#fff" stroke-width="3.53333" stroke-linecap="round" stroke-linejoin="round"/>
</svg>
